dist/svgs/devui-icons/op/expand-info.svg

<svg xmlns="http://www.w3.org/2000/svg" viewBox="0 0 16 16"><path d="M2 13V3H0l3-3 3 3H4v10h2l-3 3-3-3h2zM7 1h8v2H7V1zm0 8h8v2H7V9zm0-4h4v2H7V5zm0 8h4v2H7v-2z"/></svg>

<?xml version="1.0" encoding="UTF-8"?>
<svg width="16px" height="16px" viewBox="0 0 16 16" version="1.1" xmlns="http://www.w3.org/2000/svg" xmlns:xlink="http://www.w3.org/1999/xlink">
    <title>操作/展开所有信息</title>
    <desc>Created with Sketch.</desc>
    <g id="操作/展开所有信息" stroke="none" stroke-width="1" fill="none" fill-rule="evenodd">
        <g id="展开所有信息" fill-rule="nonzero">
            <path d="M2,13 L2,3 L1.33226763e-14,3 L3,0 L6,3 L4,3 L4,13 L6,13 L3,16 L1.33226763e-14,13 L2,13 Z M7,1 L15,1 L15,3 L7,3 L7,1 Z M7,9 L15,9 L15,11 L7,11 L7,9 Z M7,5 L11,5 L11,7 L7,7 L7,5 Z M7,13 L11,13 L11,15 L7,15 L7,13 Z" id="形状" fill="#293040"></path>
        </g>
    </g>
</svg>
